img/bank.svg

<svg width="137" height="35" viewBox="0 0 137 35" fill="none" xmlns="http://www.w3.org/2000/svg">
    <g clip-path="url(#clip0_226_4910)">
        <path fill-rule="evenodd" clip-rule="evenodd" d="M17.099 -0.00134277C7.69902 -0.00134277 -0.000976562 7.59866 -0.000976562 17.0986C-0.000976562 26.4986 7.59902 34.1986 17.099 34.1986C26.499 34.1986 34.199 26.5986 34.199 17.0986C34.199 7.59866 26.499 -0.00134277 17.099 -0.00134277ZM17.099 32.7986C8.39902 32.7986 1.39902 25.7986 1.39902 17.0986C1.39902 8.39866 8.39902 1.39866 17.099 1.39866C25.799 1.39866 32.799 8.39866 32.799 17.0986C32.899 25.6986 25.799 32.7986 17.099 32.7986Z" fill="white"/>
        <path fill-rule="evenodd" clip-rule="evenodd" d="M17.099 29.7987C17.699 29.7987 17.999 29.3987 18.099 28.8987C18.199 29.0987 18.399 29.2987 18.599 29.3987C18.799 29.3987 19.099 29.3987 19.299 29.2987C19.499 29.1987 19.699 28.9987 19.799 28.7987C19.899 28.5987 19.899 28.2987 19.799 28.0987C20.099 28.4987 20.499 28.5987 20.999 28.3987C21.599 28.0987 21.799 27.6987 21.499 27.0987C20.799 25.3987 20.099 23.7987 19.399 22.0987C19.299 21.8987 19.299 21.7987 19.199 21.5987C19.099 21.4987 19.099 21.3987 18.999 21.2987C18.999 21.1987 18.899 21.1987 18.799 21.0987C19.899 21.1987 20.399 21.5987 20.699 21.7987C20.799 21.8987 20.799 21.8987 21.099 21.7987H21.499C21.599 21.8987 21.799 21.9987 21.899 21.9987L23.099 22.8987C23.299 23.0987 23.499 23.2987 23.499 23.5987C23.499 23.7987 22.899 24.2987 22.799 24.4987C22.399 24.8987 22.999 25.4987 23.799 25.4987C23.599 25.2987 23.499 25.0987 23.599 24.8987C23.699 24.8987 23.799 24.8987 23.999 24.7987C24.199 24.6987 24.099 24.1987 24.199 24.0987C24.499 23.7987 25.299 23.7987 25.899 23.7987C26.099 23.7987 26.399 23.6987 26.299 23.3987C26.599 23.3987 26.699 23.6987 26.699 23.8987C26.999 23.6987 27.199 22.9987 26.199 22.7987C26.399 22.5987 26.699 22.5987 26.899 22.7987C27.099 22.4987 26.599 21.9987 25.799 22.2987C25.799 22.2987 25.399 21.7987 24.399 22.9987C24.299 22.8987 24.099 22.7987 23.999 22.6987L22.599 21.2987C22.599 20.6987 22.499 19.5987 21.799 18.9987C21.499 18.6987 21.199 18.5987 20.499 18.3987C20.499 18.3987 20.799 17.8987 20.899 17.6987C21.499 18.2987 22.699 18.4987 22.699 17.4987C23.699 18.4987 24.599 17.8987 24.599 17.2987C24.599 17.5987 24.699 17.8987 24.799 18.1987C24.899 18.4987 25.399 19.7987 26.499 19.7987C26.499 20.1987 26.499 21.6987 27.899 21.9987C27.999 21.9987 27.999 21.9987 28.099 22.0987C28.699 22.7987 30.999 23.4987 31.199 23.2987C30.999 23.1987 30.699 22.9987 30.699 22.1987C30.699 21.6987 30.599 18.8987 30.599 14.9987C30.599 13.5987 30.499 9.09868 25.999 8.49868C25.299 8.39868 24.699 8.49868 24.099 8.89868C23.299 9.49868 22.899 10.4987 23.399 11.5987V11.6987C23.599 11.9987 23.499 12.1987 23.299 12.3987C22.899 12.7987 22.499 12.9987 21.999 13.0987C21.699 13.0987 21.399 12.9987 21.199 12.7987C20.699 12.2987 20.399 11.6987 20.199 10.9987C19.999 9.69868 20.299 8.99868 20.299 8.89868C20.699 8.19868 21.399 7.59868 22.299 7.59868C22.699 6.79868 23.899 7.09868 23.899 7.09868C24.199 7.19868 24.299 7.19868 24.399 7.39868C24.399 7.39868 24.899 6.59868 24.399 6.29868C23.899 5.99868 22.799 5.89868 22.799 5.89868C22.799 5.39868 21.999 4.99868 20.399 5.29868C18.599 5.59868 18.199 4.89868 18.199 4.89868C18.099 5.79868 18.799 6.19868 18.999 6.39868C18.299 7.19868 17.299 8.69868 17.099 10.7987C16.899 8.69868 15.899 7.19868 15.199 6.39868C15.399 6.29868 16.099 5.79868 15.999 4.89868C15.999 4.89868 15.599 5.59868 13.799 5.29868C12.299 4.99868 11.399 5.39868 11.399 5.89868C11.399 5.89868 10.299 5.99868 9.79902 6.29868C9.29902 6.59868 9.79902 7.39868 9.79902 7.39868C9.89902 7.29868 9.99902 7.19868 10.299 7.09868C10.299 7.09868 11.499 6.79868 11.899 7.59868C12.799 7.69868 13.499 8.19868 13.899 8.89868C13.899 8.89868 14.299 9.59868 13.999 10.9987C13.899 11.6987 13.499 12.2987 12.999 12.7987C12.799 12.9987 12.499 13.1987 12.199 13.0987C11.699 12.9987 11.299 12.7987 10.899 12.3987C10.699 12.1987 10.599 11.9987 10.799 11.6987V11.5987C11.299 10.4987 10.899 9.49868 10.099 8.89868C9.49902 8.49868 8.89902 8.39868 8.19902 8.49868C3.79902 9.09868 3.59902 13.5987 3.59902 14.9987C3.59902 18.8987 3.49902 21.6987 3.49902 22.1987C3.49902 22.9987 3.19902 23.1987 2.99902 23.2987C3.29902 23.4987 5.59902 22.7987 6.09902 22.0987C6.09902 22.0987 6.19902 21.9987 6.29902 21.9987C7.69902 21.6987 7.69902 20.1987 7.69902 19.7987C8.79902 19.7987 9.29902 18.4987 9.39902 18.1987C9.49902 17.8987 9.59902 17.5987 9.59902 17.2987C9.59902 17.8987 10.499 18.3987 11.499 17.4987C11.499 18.4987 12.699 18.2987 13.299 17.6987C13.399 17.8987 13.699 18.3987 13.699 18.3987C12.999 18.4987 12.699 18.6987 12.399 18.9987C11.599 19.6987 11.599 20.7987 11.599 21.2987L10.199 22.6987C10.099 22.7987 9.89902 22.8987 9.79902 22.9987C8.69902 21.7987 8.39902 22.2987 8.39902 22.2987C7.59902 21.9987 7.19902 22.4987 7.29902 22.7987C7.49902 22.5987 7.79902 22.6987 7.99902 22.7987C6.89902 22.9987 7.19902 23.7987 7.49902 23.8987C7.49902 23.6987 7.59902 23.3987 7.89902 23.3987C7.89902 23.6987 8.09902 23.7987 8.29902 23.7987C8.79902 23.7987 9.69902 23.7987 9.99902 24.0987C10.199 24.1987 10.099 24.6987 10.199 24.7987C10.299 24.8987 10.499 24.8987 10.599 24.8987C10.599 25.0987 10.599 25.1987 10.399 25.4987C11.199 25.5987 11.699 24.8987 11.399 24.4987C11.199 24.2987 10.699 23.7987 10.699 23.5987C10.699 23.3987 10.899 23.0987 11.099 22.8987L12.299 21.9987C12.399 21.8987 12.499 21.7987 12.699 21.7987C12.799 21.6987 12.999 21.6987 13.099 21.7987C13.399 21.8987 13.399 21.8987 13.499 21.7987C13.799 21.5987 14.299 21.1987 15.399 21.0987C15.299 21.0987 15.299 21.1987 15.199 21.2987C15.099 21.3987 15.099 21.4987 14.999 21.5987C14.899 21.6987 14.899 21.8987 14.799 22.0987C14.099 23.7987 13.399 25.3987 12.699 27.0987C12.499 27.6987 12.699 28.0987 13.199 28.3987C13.599 28.5987 14.099 28.4987 14.399 28.0987C14.299 28.3987 14.299 28.5987 14.399 28.7987C14.499 28.9987 14.699 29.1987 14.899 29.2987C15.099 29.3987 15.399 29.3987 15.599 29.3987C15.899 29.2987 15.999 29.1987 16.099 28.8987C16.199 29.3987 16.499 29.7987 17.099 29.7987Z" fill="white"/>
        <path fill-rule="evenodd" clip-rule="evenodd" d="M45.8986 11.0987C46.7986 11.0987 48.7986 10.9987 49.8986 10.8987V12.0987C48.8986 11.9987 47.2986 11.8987 46.7986 11.8987C46.3986 11.8987 45.0986 11.8987 44.2986 11.9987V16.1987H45.1986C46.9986 16.1987 50.5986 16.4987 50.5986 19.5987C50.5986 22.0987 48.4986 23.1987 45.7986 23.1987H42.5986C42.6986 21.2987 42.6986 18.7987 42.6986 16.6987C42.6986 14.7987 42.6986 11.8987 42.5986 10.9987C43.6986 10.9987 45.4986 11.0987 45.8986 11.0987ZM44.2986 22.1987H45.6986C47.6986 22.1987 48.7986 21.2987 48.7986 19.4987C48.7986 17.5987 47.3986 16.9987 44.1986 16.9987V22.1987H44.2986ZM52.4986 15.5987C53.1986 14.7987 54.3986 14.3987 55.3986 14.3987C57.1986 14.3987 58.3986 15.2987 58.3986 17.3987V21.5987C58.3986 22.4987 58.5986 22.6987 58.8986 22.6987C58.9986 22.6987 59.1986 22.6987 59.2986 22.5987L59.3986 22.9987C58.8986 23.2987 58.3986 23.2987 58.0986 23.2987C57.4986 23.2987 57.1986 22.9987 57.0986 22.5987L56.9986 22.1987C56.0986 22.8987 55.0986 23.2987 54.2986 23.2987C52.7986 23.2987 51.7986 22.4987 51.7986 21.0987C51.7986 19.5987 52.8986 18.8987 54.4986 18.5987L56.1986 18.2987C56.7986 18.1987 57.0986 17.9987 57.0986 17.5987C57.0986 15.7987 56.2986 15.2987 54.9986 15.2987C53.9986 15.2987 53.2986 15.5987 52.6986 16.6987H52.4986V15.5987ZM57.0986 18.7987L55.9986 18.9987C54.7986 19.1987 53.3986 19.5987 53.3986 20.8987C53.3986 21.8987 53.8986 22.3987 54.9986 22.3987C55.6986 22.3987 56.2986 22.1987 56.9986 21.3987V18.7987H57.0986ZM61.7986 14.6987H62.5986C62.4986 15.9987 62.3986 18.0987 62.3986 18.1987C63.0986 18.1987 64.0986 18.2987 64.6986 18.2987C65.2986 18.2987 66.2986 18.2987 66.7986 18.1987C66.7986 18.0987 66.7986 15.9987 66.6986 14.6987H68.3986C68.2986 15.9987 68.1986 18.0987 68.1986 18.9987C68.1986 19.6987 68.1986 21.9987 68.3986 23.2987H66.6986C66.7986 21.9987 66.7986 19.6987 66.7986 19.1987C66.0986 19.0987 64.9986 19.0987 64.6986 19.0987C64.1986 19.0987 63.0986 19.0987 62.3986 19.1987C62.3986 19.7987 62.3986 21.9987 62.5986 23.2987H60.8986C60.9986 21.9987 61.0986 19.6987 61.0986 18.9987C61.0986 18.0987 61.0986 15.9987 60.8986 14.6987H61.7986ZM71.4986 14.6987H72.2986C72.1986 15.9987 72.1986 18.0987 72.1986 18.3987H72.4986C73.0986 18.3987 75.8986 15.1987 76.1986 14.6987H77.7986L73.7986 18.2987C74.2986 18.8987 76.9986 21.8987 78.1986 23.1987H76.0986C75.4986 22.1987 73.5986 19.9987 72.4986 18.7987H72.1986C72.1986 19.3987 72.1986 21.8987 72.2986 23.1987H70.5986C70.6986 21.8987 70.7986 19.5987 70.7986 18.8987C70.7986 17.9987 70.7986 15.8987 70.5986 14.5987C70.8986 14.6987 71.1986 14.6987 71.4986 14.6987ZM85.4986 10.9987C86.0986 10.9987 86.7986 10.8987 87.2986 10.8987C90.3986 10.8987 91.5986 11.7987 91.5986 13.9987C91.5986 16.6987 89.2986 17.5987 86.4986 17.5987C86.2986 17.5987 85.6986 17.5987 85.3986 17.4987V20.3987C85.3986 21.1987 85.3986 22.2987 85.4986 23.0987H83.6986C83.7986 21.1987 83.7986 18.6987 83.7986 16.5987C83.7986 14.6987 83.7986 11.7987 83.6986 10.8987C84.3986 10.8987 85.0986 10.9987 85.4986 10.9987ZM86.1986 16.6987C88.5986 16.6987 89.8986 15.7987 89.8986 13.9987C89.8986 12.2987 88.5986 11.8987 86.8986 11.8987H85.3986V16.5987C85.6986 16.6987 85.9986 16.6987 86.1986 16.6987ZM100.399 18.8987C100.399 21.4987 98.6986 23.3987 96.0986 23.3987C93.4986 23.3987 91.8986 21.4987 91.8986 19.0987C91.8986 16.2987 93.6986 14.4987 96.2986 14.4987C98.7986 14.4987 100.399 16.2987 100.399 18.8987ZM93.4986 18.9987C93.4986 20.8987 94.2986 22.6987 96.0986 22.6987C97.7986 22.6987 98.7986 20.9987 98.7986 18.7987C98.7986 16.9987 98.0986 15.0987 96.1986 15.0987C94.3986 15.0987 93.4986 16.9987 93.4986 18.9987ZM108.599 16.4987H108.399C107.799 15.4987 106.999 15.1987 106.099 15.1987C104.099 15.1987 103.199 17.0987 103.199 18.9987C103.199 21.0987 104.399 22.7987 106.499 22.7987C107.199 22.7987 107.799 22.6987 108.799 21.5987L108.999 21.7987L108.799 22.5987C107.999 23.0987 107.099 23.3987 105.999 23.3987C103.399 23.3987 101.699 21.5987 101.699 18.9987C101.699 16.2987 103.599 14.5987 106.299 14.5987C107.199 14.5987 108.099 14.7987 109.199 15.2987L108.599 16.4987ZM117.199 16.4987H116.999C116.399 15.4987 115.599 15.1987 114.699 15.1987C112.699 15.1987 111.799 17.0987 111.799 18.9987C111.799 21.0987 112.999 22.7987 115.099 22.7987C115.799 22.7987 116.399 22.6987 117.399 21.5987L117.499 21.7987L117.299 22.5987C116.499 23.0987 115.599 23.3987 114.499 23.3987C111.899 23.3987 110.199 21.5987 110.199 18.9987C110.199 16.2987 112.099 14.5987 114.799 14.5987C115.699 14.5987 116.599 14.7987 117.699 15.2987L117.199 16.4987ZM119.699 23.0987H119.199C119.299 21.7987 119.399 19.4987 119.399 18.7987C119.399 17.8987 119.399 15.7987 119.199 14.4987H120.899C120.799 15.7987 120.699 17.8987 120.699 18.7987V20.9987C121.599 19.8987 124.899 15.6987 125.699 14.5987H126.799C126.699 15.8987 126.599 17.9987 126.599 18.8987C126.599 19.5987 126.599 21.8987 126.799 23.1987H125.099C125.199 21.8987 125.299 19.5987 125.299 18.8987V16.5987C124.199 17.7987 121.099 21.6987 120.199 23.1987C119.999 23.0987 119.799 23.0987 119.699 23.0987ZM129.199 23.0987H128.699C128.799 21.7987 128.799 19.4987 128.799 18.7987C128.799 17.8987 128.799 15.7987 128.699 14.4987H130.399C130.199 15.8987 130.199 17.9987 130.199 18.8987V21.0987C131.099 19.9987 134.399 15.7987 135.199 14.6987H136.299C136.199 15.8987 136.199 17.9987 136.199 18.8987C136.199 19.5987 136.199 21.8987 136.299 23.1987H134.599C134.699 21.8987 134.699 19.5987 134.699 18.8987V16.5987C133.599 17.7987 130.499 21.6987 129.599 23.1987C129.499 23.0987 129.399 23.0987 129.199 23.0987Z" fill="white"/>
    </g>
    <defs>
        <clipPath id="clip0_226_4910">
            <rect width="136.3" height="34.2" fill="white"/>
        </clipPath>
    </defs>
</svg>

<svg width="137" height="35" fill="none" xmlns="http://www.w3.org/2000/svg"><g clip-path="url(#clip0_226_4910)" fill-rule="evenodd" clip-rule="evenodd" fill="#fff"><path d="M17.099-.001c-9.4 0-17.1 7.6-17.1 17.1 0 9.4 7.6 17.1 17.1 17.1 9.4 0 17.1-7.6 17.1-17.1 0-9.5-7.7-17.1-17.1-17.1zm0 32.8c-8.7 0-15.7-7-15.7-15.7s7-15.7 15.7-15.7 15.7 7 15.7 15.7c.1 8.6-7 15.7-15.7 15.7z"/><path d="M17.099 29.799c.6 0 .9-.4 1-.9.1.2.3.4.5.5.2 0 .5 0 .7-.1.2-.1.4-.3.5-.5.1-.2.1-.5 0-.7.3.4.7.5 1.2.3.6-.3.8-.7.5-1.3-.7-1.7-1.4-3.3-2.1-5-.1-.2-.1-.3-.2-.5-.1-.1-.1-.2-.2-.3 0-.1-.1-.1-.2-.2 1.1.1 1.6.5 1.9.7.1.1.1.1.4 0h.4c.1.1.3.2.4.2l1.2.9c.2.2.4.4.4.7 0 .2-.6.7-.7.9-.4.4.2 1 1 1-.2-.2-.3-.4-.2-.6.1 0 .2 0 .4-.1s.1-.6.2-.7c.3-.3 1.1-.3 1.7-.3.2 0 .5-.1.4-.4.3 0 .4.3.4.5.3-.2.5-.9-.5-1.1.2-.2.5-.2.7 0 .2-.3-.3-.8-1.1-.5 0 0-.4-.5-1.4.7-.1-.1-.3-.2-.4-.3l-1.4-1.4c0-.6-.1-1.7-.8-2.3-.3-.3-.6-.4-1.3-.6 0 0 .3-.5.4-.7.6.6 1.8.8 1.8-.2 1 1 1.9.4 1.9-.2 0 .3.1.6.2.9.1.3.6 1.6 1.7 1.6 0 .4 0 1.9 1.4 2.2.1 0 .1 0 .2.1.6.7 2.9 1.4 3.1 1.2-.2-.1-.5-.3-.5-1.1 0-.5-.1-3.3-.1-7.2 0-1.4-.1-5.9-4.6-6.5-.7-.1-1.3 0-1.9.4-.8.6-1.2 1.6-.7 2.7v.1c.2.3.1.5-.1.7-.4.4-.8.6-1.3.7-.3 0-.6-.1-.8-.3-.5-.5-.8-1.1-1-1.8-.2-1.3.1-2 .1-2.1.4-.7 1.1-1.3 2-1.3.4-.8 1.6-.5 1.6-.5.3.1.4.1.5.3 0 0 .5-.8 0-1.1-.5-.3-1.6-.4-1.6-.4 0-.5-.8-.9-2.4-.6-1.8.3-2.2-.4-2.2-.4-.1.9.6 1.3.8 1.5-.7.8-1.7 2.3-1.9 4.4-.2-2.1-1.2-3.6-1.9-4.4.2-.1.9-.6.8-1.5 0 0-.4.7-2.2.4-1.5-.3-2.4.1-2.4.6 0 0-1.1.1-1.6.4-.5.3 0 1.1 0 1.1.1-.1.2-.2.5-.3 0 0 1.2-.3 1.6.5.9.1 1.6.6 2 1.3 0 0 .4.7.1 2.1-.1.7-.5 1.3-1 1.8-.2.2-.5.4-.8.3-.5-.1-.9-.3-1.3-.7-.2-.2-.3-.4-.1-.7v-.1c.5-1.1.1-2.1-.7-2.7-.6-.4-1.2-.5-1.9-.4-4.4.6-4.6 5.1-4.6 6.5 0 3.9-.1 6.7-.1 7.2 0 .8-.3 1-.5 1.1.3.2 2.6-.5 3.1-1.2 0 0 .1-.1.2-.1 1.4-.3 1.4-1.8 1.4-2.2 1.1 0 1.6-1.3 1.7-1.6.1-.3.2-.6.2-.9 0 .6.9 1.1 1.9.2 0 1 1.2.8 1.8.2.1.2.4.7.4.7-.7.1-1 .3-1.3.6-.8.7-.8 1.8-.8 2.3l-1.4 1.4c-.1.1-.3.2-.4.3-1.1-1.2-1.4-.7-1.4-.7-.8-.3-1.2.2-1.1.5.2-.2.5-.1.7 0-1.1.2-.8 1-.5 1.1 0-.2.1-.5.4-.5 0 .3.2.4.4.4.5 0 1.4 0 1.7.3.2.1.1.6.2.7.1.1.3.1.4.1 0 .2 0 .3-.2.6.8.1 1.3-.6 1-1-.2-.2-.7-.7-.7-.9 0-.2.2-.5.4-.7l1.2-.9c.1-.1.2-.2.4-.2.1-.1.3-.1.4 0 .3.1.3.1.4 0 .3-.2.8-.6 1.9-.7-.1 0-.1.1-.2.2s-.1.2-.2.3c-.1.1-.1.3-.2.5-.7 1.7-1.4 3.3-2.1 5-.2.6 0 1 .5 1.3.4.2.9.1 1.2-.3-.1.3-.1.5 0 .7.1.2.3.4.5.5.2.1.5.1.7.1.3-.1.4-.2.5-.5.1.5.4.9 1 .9zm28.8-18.7c.9 0 2.9-.1 4-.2v1.2c-1-.1-2.6-.2-3.1-.2-.4 0-1.7 0-2.5.1v4.2h.9c1.8 0 5.4.3 5.4 3.4 0 2.5-2.1 3.6-4.8 3.6h-3.2c.1-1.9.1-4.4.1-6.5 0-1.9 0-4.8-.1-5.7 1.1 0 2.9.1 3.3.1zm-1.6 11.1h1.4c2 0 3.1-.9 3.1-2.7 0-1.9-1.4-2.5-4.6-2.5v5.2h.1zm8.2-6.6c.7-.8 1.9-1.2 2.9-1.2 1.8 0 3 .9 3 3v4.2c0 .9.2 1.1.5 1.1.1 0 .3 0 .4-.1l.1.4c-.5.3-1 .3-1.3.3-.6 0-.9-.3-1-.7l-.1-.4c-.9.7-1.9 1.1-2.7 1.1-1.5 0-2.5-.8-2.5-2.2 0-1.5 1.1-2.2 2.7-2.5l1.7-.3c.6-.1.9-.3.9-.7 0-1.8-.8-2.3-2.1-2.3-1 0-1.7.3-2.3 1.4h-.2v-1.1zm4.6 3.2l-1.1.2c-1.2.2-2.6.6-2.6 1.9 0 1 .5 1.5 1.6 1.5.7 0 1.3-.2 2-1v-2.6h.1zm4.7-4.1h.8c-.1 1.3-.2 3.4-.2 3.5.7 0 1.7.1 2.3.1.6 0 1.6 0 2.1-.1 0-.1 0-2.2-.1-3.5h1.7c-.1 1.3-.2 3.4-.2 4.3 0 .7 0 3 .2 4.3h-1.7c.1-1.3.1-3.6.1-4.1-.7-.1-1.8-.1-2.1-.1-.5 0-1.6 0-2.3.1 0 .6 0 2.8.2 4.1h-1.7c.1-1.3.2-3.6.2-4.3 0-.9 0-3-.2-4.3h.9zm9.7 0h.8c-.1 1.3-.1 3.4-.1 3.7h.3c.6 0 3.4-3.2 3.7-3.7h1.6l-4 3.6c.5.6 3.2 3.6 4.4 4.9h-2.1c-.6-1-2.5-3.2-3.6-4.4h-.3c0 .6 0 3.1.1 4.4h-1.7c.1-1.3.2-3.6.2-4.3 0-.9 0-3-.2-4.3.3.1.6.1.9.1zm14-3.7c.6 0 1.3-.1 1.8-.1 3.1 0 4.3.9 4.3 3.1 0 2.7-2.3 3.6-5.1 3.6-.2 0-.8 0-1.1-.1v2.9c0 .8 0 1.9.1 2.7h-1.8c.1-1.9.1-4.4.1-6.5 0-1.9 0-4.8-.1-5.7.7 0 1.4.1 1.8.1zm.7 5.7c2.4 0 3.7-.9 3.7-2.7 0-1.7-1.3-2.1-3-2.1h-1.5v4.7c.3.1.6.1.8.1zm14.2 2.2c0 2.6-1.7 4.5-4.3 4.5-2.6 0-4.2-1.9-4.2-4.3 0-2.8 1.8-4.6 4.4-4.6 2.5 0 4.1 1.8 4.1 4.4zm-6.9.1c0 1.9.8 3.7 2.6 3.7 1.7 0 2.7-1.7 2.7-3.9 0-1.8-.7-3.7-2.6-3.7-1.8 0-2.7 1.9-2.7 3.9zm15.1-2.5h-.2c-.6-1-1.4-1.3-2.3-1.3-2 0-2.9 1.9-2.9 3.8 0 2.1 1.2 3.8 3.3 3.8.7 0 1.3-.1 2.3-1.2l.2.2-.2.8c-.8.5-1.7.8-2.8.8-2.6 0-4.3-1.8-4.3-4.4 0-2.7 1.9-4.4 4.6-4.4.9 0 1.8.2 2.9.7l-.6 1.2zm8.6 0h-.2c-.6-1-1.4-1.3-2.3-1.3-2 0-2.9 1.9-2.9 3.8 0 2.1 1.2 3.8 3.3 3.8.7 0 1.3-.1 2.3-1.2l.1.2-.2.8c-.8.5-1.7.8-2.8.8-2.6 0-4.3-1.8-4.3-4.4 0-2.7 1.9-4.4 4.6-4.4.9 0 1.8.2 2.9.7l-.5 1.2zm2.5 6.6h-.5c.1-1.3.2-3.6.2-4.3 0-.9 0-3-.2-4.3h1.7c-.1 1.3-.2 3.4-.2 4.3v2.2c.9-1.1 4.2-5.3 5-6.4h1.1c-.1 1.3-.2 3.4-.2 4.3 0 .7 0 3 .2 4.3h-1.7c.1-1.3.2-3.6.2-4.3v-2.3c-1.1 1.2-4.2 5.1-5.1 6.6-.2-.1-.4-.1-.5-.1zm9.5 0h-.5c.1-1.3.1-3.6.1-4.3 0-.9 0-3-.1-4.3h1.7c-.2 1.4-.2 3.5-.2 4.4v2.2c.9-1.1 4.2-5.3 5-6.4h1.1c-.1 1.2-.1 3.3-.1 4.2 0 .7 0 3 .1 4.3h-1.7c.1-1.3.1-3.6.1-4.3v-2.3c-1.1 1.2-4.2 5.1-5.1 6.6-.1-.1-.2-.1-.4-.1z"/></g><defs><clipPath id="clip0_226_4910"><path fill="#fff" d="M0 0h136.3v34.2H0z"/></clipPath></defs></svg>
